X: 41644
T: Up The Steep Hill
R: reel
M: 4/4
K: Amajor
"A"A2 AG ABcd|"A"efed "E"cedB|"A"A2 AG ABcd|"E"e2 BA GB E2|
"A"cA"E"BG "A"ABcd|"E"e2 dB efgb|"F#m"a2 ed "A"Bcda|"E"ge"Bm7"af "E"b4:|
"A"a2 "D"fd "A"ec"E7"dB|"A"ec"D"af "E"gb e2|"E"BcdB G2 ef|"E"g2 ba aged|
"A"cdeA "E"GBEe|"E"efgb bagb|"A"a2 ed cdea|"E"gebg "A"a4:|

